assets/static/images/logout.svg

<?xml version="1.0" encoding="UTF-8"?>
<svg width="20px" height="21px" viewBox="0 0 20 21" version="1.1" xmlns="http://www.w3.org/2000/svg" xmlns:xlink="http://www.w3.org/1999/xlink">
    <!-- Generator: Sketch 49.1 (51147) - http://www.bohemiancoding.com/sketch -->
    <title>icon logout</title>
    <desc>Created with Sketch.</desc>
    <defs>
        <polygon id="path-1" points="0.00015483871 0.0635631798 16.1289677 0.0635631798 16.1289677 10.8816973 0.00015483871 10.8816973"></polygon>
    </defs>
    <g id="10books" stroke="none" stroke-width="1" fill="none" fill-rule="evenodd">
        <g id="Library---main" transform="translate(-1855.000000, -45.000000)">
            <g id="icon-logout" transform="translate(1855.000000, 45.000000)">
                <g id="Group-19">
                    <g id="Group-3" transform="translate(3.870968, 5.027273)">
                        <mask id="mask-2" fill="white">
                            <use xlink:href="#path-1"></use>
                        </mask>
                        <g id="Clip-2"></g>
                        <path d="M11.3295742,0.343133636 C10.9517677,-0.0295845455 10.338929,-0.0296481818 9.96092903,0.34307 C9.58312258,0.715851818 9.58305806,1.32020636 9.96092903,1.69298818 L12.8251226,4.51818818 L0.967896774,4.51818818 C0.433380645,4.51818818 0.00015483871,4.94557 0.00015483871,5.47273364 C0.00015483871,5.99989727 0.433380645,6.42727909 0.967896774,6.42727909 L12.8249935,6.42727909 L9.96092903,9.25222455 C9.58305806,9.62500636 9.58305806,10.2293609 9.96092903,10.6021427 C10.1499613,10.7885336 10.3976387,10.8816973 10.6453161,10.8816973 C10.892929,10.8816973 11.1406065,10.7885336 11.3295742,10.6021427 L15.8455742,6.14772455 C16.2234452,5.77500636 16.2234452,5.17058818 15.8455742,4.79780636 L11.3295742,0.343133636 Z" id="Fill-1" fill="#A2A2AF" mask="url(#mask-2)"></path>
                    </g>
                    <path d="M9.35483871,21 C9.88929032,21 10.3225806,20.5726182 10.3225806,20.0454545 C10.3225806,19.5182909 9.88929032,19.0909091 9.35483871,19.0909091 L1.93548387,19.0909091 L1.93548387,1.90909091 L9.35483871,1.90909091 C9.88929032,1.90909091 10.3225806,1.48170909 10.3225806,0.954545455 C10.3225806,0.427381818 9.88929032,0 9.35483871,0 L0.967741935,0 C0.433290323,0 0,0.427381818 0,0.954545455 L0,20.0454545 C0,20.5726182 0.433290323,21 0.967741935,21 L9.35483871,21 Z" id="Fill-4" fill="#A2A2AF"></path>
                </g>
            </g>
        </g>
    </g>
</svg>

<svg xmlns="http://www.w3.org/2000/svg" xmlns:xlink="http://www.w3.org/1999/xlink" width="20" height="21">
    <defs>
        <path id="a" d="M.000155.063563h16.128813v10.818134H.000155z"/>
    </defs>
    <g fill="none" fill-rule="evenodd">
        <g transform="translate(3.870968 5.027273)">
            <mask id="b" fill="#fff">
                <use xlink:href="#a"/>
            </mask>
            <path fill="#A2A2AF" d="M11.329574.343134C10.951768-.029585 10.33893-.029648 9.96093.34307c-.377806.372782-.37787.977136 0 1.349918l2.864194 2.8252H.967897c-.534516 0-.967742.427382-.967742.954546 0 .527163.433226.954545.967742.954545h11.857097L9.960928 9.252225c-.37787.372781-.37787.977136 0 1.349918.189032.18639.43671.279554.684387.279554.247613 0 .49529-.093163.684258-.279554l4.516-4.454418c.377871-.372719.377871-.977137 0-1.349919l-4.516-4.454672z" mask="url(#b)"/>
        </g>
        <path fill="#A2A2AF" d="M9.354839 21c.534451 0 .967742-.427382.967742-.954545 0-.527164-.43329-.954546-.967742-.954546H1.935484V1.909091h7.419355c.534451 0 .967742-.427382.967742-.954546C10.32258.427382 9.88929 0 9.354839 0H.967742C.43329 0 0 .427382 0 .954545v19.09091C0 20.572618.43329 21 .967742 21h8.387097z"/>
    </g>
</svg>
